svgs/thin/file-arrow-down.svg

<svg xmlns="http://www.w3.org/2000/svg" viewBox="0 0 384 512"><!--! Font Awesome Pro 6.0.0-alpha3 by @fontawesome - https://fontawesome.com License - https://fontawesome.com/license (Commercial License) --><path d="M374.6 150.6l-141.3-141.3C227.4 3.371 219.2 0 210.7 0H64C28.65 0 0 28.65 0 64l.0065 384c0 35.34 28.65 64 64 64H320c35.35 0 64-28.66 64-64V173.3C384 164.8 380.6 156.6 374.6 150.6zM224 22.63L361.4 160H248C234.8 160 224 149.2 224 136V22.63zM368 448c0 26.47-21.53 48-48 48H64c-26.47 0-48-21.53-48-48V64c0-26.47 21.53-48 48-48h144v120c0 22.06 17.94 40 40 40h120V448zM199.4 232c0-4.406-3.578-8-8-8s-8 3.594-8 8v188.7l-93.17-93.17c-3.125-3.125-8.188-3.125-11.31 0s-3.125 8.188 0 11.31l106.8 106.8c3.125 3.125 8.188 3.125 11.31 0l108-108c1.562-1.562 2.344-3.594 2.344-5.656s-.7813-4.094-2.344-5.656c-3.125-3.125-8.188-3.125-11.31 0l-94.34 94.34V232z"/></svg>

<svg xmlns="http://www.w3.org/2000/svg" viewBox="0 0 384 512"><!-- Font Awesome Pro 6.0.0-alpha2 by @fontawesome - https://fontawesome.com License - https://fontawesome.com/license (Commercial License) --><path d="M374.629 150.625L233.371 9.375C227.371 3.371 219.23 0 210.746 0H64C28.652 0 0 28.652 0 64V448C0 483.344 28.652 512 64 512H320C355.348 512 384 483.344 384 448V173.254C384 164.766 380.629 156.629 374.629 150.625ZM224 22.629L361.375 160H248C234.781 160 224 149.234 224 136V22.629ZM368 448C368 474.469 346.469 496 320 496H64C37.531 496 16 474.469 16 448V64C16 37.531 37.531 16 64 16H208V136C208 158.062 225.938 176 248 176H368V448ZM199.414 232C199.414 227.594 195.836 224 191.414 224S183.414 227.594 183.414 232V420.688L90.242 327.516C87.117 324.391 82.055 324.391 78.93 327.516S75.805 335.703 78.93 338.828L185.758 445.656C188.883 448.781 193.945 448.781 197.07 445.656L305.07 337.656C306.633 336.094 307.414 334.062 307.414 332S306.633 327.906 305.07 326.344C301.945 323.219 296.883 323.219 293.758 326.344L199.414 420.688V232Z"/></svg>
